icons/taobao-fill.svg

<svg xmlns="http://www.w3.org/2000/svg" width="24" height="24" fill="none"><g clip-path="url(#a)"><g><path fill="#121212" d="M3.576 8.27696L2.383 10.119L4.583 11.49C4.583 11.49 6.047 12.244 5.346 13.659C4.696 14.997 1.5 17.929 1.5 17.929L4.362 19.727C6.346 15.401 6.212 15.977 6.709 14.421C7.221 12.841 7.333 11.627 6.467 10.744C5.354 9.61896 5.229 9.51396 3.576 8.27696ZM5.14 7.58296C6.18 7.58296 7.023 6.82496 7.023 5.88996C7.023 4.94696 6.18 4.18896 5.14 4.18896C4.092 4.18896 3.253 4.95096 3.253 5.88996C3.258 6.82096 4.093 7.58296 5.14 7.58296ZM22.145 7.79296C22.145 7.79296 21.521 2.92296 10.938 5.93896C11.393 5.14396 11.607 4.63196 11.607 4.63196L8.967 3.88196C8.967 3.88196 7.897 7.38996 5.995 9.02196C5.995 9.02196 7.841 10.095 7.821 10.062C8.32273 9.55973 8.79264 9.0267 9.228 8.46596C9.652 8.27596 10.058 8.10296 10.454 7.94196C9.962 8.82896 9.176 10.16 8.386 10.998L9.498 11.982C9.498 11.982 10.26 11.244 11.087 10.362H12.03V11.998H8.345V13.304H12.03V16.437L11.89 16.433C11.482 16.413 10.853 16.344 10.603 15.949C10.305 15.465 10.526 14.59 10.539 14.046H7.995L7.902 14.098C7.902 14.098 6.967 18.303 10.591 18.211C13.977 18.303 15.921 17.255 16.856 16.534L17.226 17.928L19.316 17.046L17.9 13.562L16.207 14.098L16.521 15.288C16.094 15.618 15.591 15.86 15.054 16.042V13.304H18.646V11.994H15.054V10.357H18.658V9.05096H12.248C12.712 8.48196 13.07 7.96196 13.168 7.63596L12.046 7.32896C16.844 5.59596 19.516 5.89396 19.496 8.73196V16.207C19.496 16.207 19.779 18.771 16.86 18.59L15.28 18.247L14.913 19.759C14.913 19.759 21.73 21.726 22.287 16.445C22.839 11.163 22.145 7.79296 22.145 7.79296Z"/></g></g><defs><clipPath id="a"><rect width="24" height="24" fill="white"/></clipPath></defs></svg>

<svg width="24" height="24" fill="none" xmlns="http://www.w3.org/2000/svg"><g clip-path="url(#a)"><path d="m3.576 8.277-1.193 1.842 2.2 1.371s1.464.754.763 2.169c-.65 1.338-3.846 4.27-3.846 4.27l2.862 1.798c1.984-4.326 1.85-3.75 2.347-5.306.512-1.58.624-2.794-.242-3.677-1.113-1.125-1.238-1.23-2.891-2.467Zm1.564-.694c1.04 0 1.883-.758 1.883-1.693 0-.943-.843-1.701-1.883-1.701-1.048 0-1.887.762-1.887 1.701.005.931.84 1.693 1.887 1.693Zm17.005.21s-.624-4.87-11.207-1.854c.455-.795.669-1.307.669-1.307l-2.64-.75s-1.07 3.508-2.972 5.14c0 0 1.846 1.073 1.826 1.04a16.92 16.92 0 0 0 1.407-1.596c.424-.19.83-.363 1.226-.524-.492.887-1.278 2.218-2.068 3.056l1.112.984s.762-.738 1.589-1.62h.943v1.636H8.345v1.306h3.685v3.133l-.14-.004c-.408-.02-1.037-.089-1.287-.484-.298-.484-.077-1.359-.064-1.903H7.995l-.093.052s-.935 4.205 2.689 4.113c3.386.092 5.33-.956 6.265-1.677l.37 1.394 2.09-.882-1.416-3.484-1.693.536.314 1.19c-.427.33-.93.572-1.467.754v-2.738h3.592v-1.31h-3.592v-1.637h3.604V9.051h-6.41c.464-.569.822-1.089.92-1.415l-1.122-.307c4.798-1.733 7.47-1.435 7.45 1.403v7.475s.283 2.564-2.636 2.383l-1.58-.343-.367 1.512s6.817 1.967 7.374-3.314c.552-5.282-.142-8.652-.142-8.652Z" /></g><defs><clipPath id="a"><path fill="#fff" d="M0 0h24v24H0z"/></clipPath></defs></svg>
